src/icons/email-security.svg

<svg xmlns="http://www.w3.org/2000/svg" width="64" height="64" viewBox="0 0 64 64"><path fill-rule="evenodd" clip-rule="evenodd" d="M57.49 14.12L56.13 13.93C50.3375 13.0743 44.9607 10.4191 40.76 6.34L39.57 5H36.57L35.41 6.34C31.22 10.4116 25.8583 13.0663 20.08 13.93L18.72 14.12L17 16.12V20H7L5 22V47L7 49H23.6389C28.9557 55.8085 35.6507 59.3291 36.4222 59.7348L36.47 59.76L37.18 60.12H38.98L39.69 59.76C40.48 59.37 59.21 49.76 59.21 30.24V16.1L57.49 14.12ZM28.8583 49C32.8774 53.2451 37.1157 55.5929 38.08 56.09C40.08 55.07 55.21 46.59 55.21 30.24V17.84C48.7693 16.8122 42.7942 13.8473 38.08 9.34C33.3643 13.8452 27.39 16.8097 20.95 17.84V20H44L46 22V47L44 49H28.8583ZM9 42.4089V26.3971L17.8866 34.1447L9 42.4089ZM12.0875 45L20.9182 36.7878L24.1857 39.6365H26.8143L30.3154 36.5842L39.0441 45H12.0875ZM42 42.2935L33.3418 33.9456L42 26.3971V42.2935ZM12.3374 24H38.6626L25.5 35.4757L12.3374 24Z"/></svg>

<svg xmlns="http://www.w3.org/2000/svg" width="64" height="64" viewBox="0 0 64 64"><path fill-rule="evenodd" d="m57.49 14.12-1.36-.19a27.92 27.92 0 0 1-15.37-7.59L39.57 5h-3l-1.16 1.34a27.92 27.92 0 0 1-15.33 7.59l-1.36.19-1.72 2V20H7l-2 2v25l2 2h16.639c5.317 6.809 12.012 10.33 12.783 10.735l.048.025.71.36h1.8l.71-.36c.79-.39 19.52-10 19.52-29.52V16.1zM28.858 49c4.02 4.245 8.258 6.593 9.222 7.09 2-1.02 17.13-9.5 17.13-25.85v-12.4a32.1 32.1 0 0 1-17.13-8.5 32.15 32.15 0 0 1-17.13 8.5V20H44l2 2v25l-2 2zM9 42.409V26.397l8.887 7.748zM12.088 45l8.83-8.212 3.268 2.849h2.628l3.501-3.053L39.045 45zM42 42.294l-8.658-8.348L42 26.397zM12.337 24h26.326L25.5 35.476z" clip-rule="evenodd"/></svg>
